X:1
T:Favorite [2]
L:1/8
M:2/4
I:linebreak $
K:C
V:1 treble 
V:1
 z/4 G/<c/e/4 fe | z/4 A/<e/A/4 d2 | z/4 G/<B/d/4 ed | z/4 G/<d/G/4 c2 | z/4 E/<F/G/4 dc | %5
 (D2 A) z |1 z/4 A/<B/c/4 ed | g^f=fd :|2$ z/4 G/<d/f/4 AB | cG c z |: d^de^e | ^f(D/>c/) (^FE) | %12
 d^de^f | gD/>B/ (ED) |1 d^de^f | b(a a/>)b/c/>e/ |$ d^de^f | ag g/>b/g/>e/ :|2 ee(=fe) | %19
 ba g/>e/c/>A/ | B/>d/c/>B/ E^F | GB G z || %22
